Newaita-dark/apps/256/konversation.svg

<?xml version="1.0" encoding="UTF-8"?>
<svg xmlns="http://www.w3.org/2000/svg" xmlns:xlink="http://www.w3.org/1999/xlink" width="256pt" height="256pt" viewBox="0 0 256 256" version="1.1">
<defs>
<radialGradient id="radial0" gradientUnits="userSpaceOnUse" cx="450.908936" cy="189.579361" fx="450.908936" fy="189.579361" r="21.166656" gradientTransform="matrix(0.00000139336,-0.62506,-1.125108,-0.000000812309,279.448712,508.762661)">
<stop offset="0" style="stop-color:rgb(0%,0%,0%);stop-opacity:0.313725;"/>
<stop offset="0.222222" style="stop-color:rgb(0%,0%,0%);stop-opacity:0.27451;"/>
<stop offset="1" style="stop-color:rgb(0%,0%,0%);stop-opacity:0;"/>
</radialGradient>
<radialGradient id="radial1" gradientUnits="userSpaceOnUse" cx="450.908936" cy="189.579361" fx="450.908936" fy="189.579361" r="21.166656" gradientTransform="matrix(-0.00000139336,0.62506,1.125108,0.000000812309,-141.852259,-60.219831)">
<stop offset="0" style="stop-color:rgb(0%,0%,0%);stop-opacity:0.313725;"/>
<stop offset="0.222222" style="stop-color:rgb(0%,0%,0%);stop-opacity:0.27451;"/>
<stop offset="1" style="stop-color:rgb(0%,0%,0%);stop-opacity:0;"/>
</radialGradient>
<radialGradient id="radial2" gradientUnits="userSpaceOnUse" cx="450.908936" cy="189.579361" fx="450.908936" fy="189.579361" r="21.166656" gradientTransform="matrix(-0.00000139336,-0.62506,1.125108,-0.000000812309,-141.852259,508.762661)">
<stop offset="0" style="stop-color:rgb(0%,0%,0%);stop-opacity:0.313725;"/>
<stop offset="0.222222" style="stop-color:rgb(0%,0%,0%);stop-opacity:0.27451;"/>
<stop offset="1" style="stop-color:rgb(0%,0%,0%);stop-opacity:0;"/>
</radialGradient>
<radialGradient id="radial3" gradientUnits="userSpaceOnUse" cx="450.908936" cy="189.579361" fx="450.908936" fy="189.579361" r="21.166656" gradientTransform="matrix(0.00000139336,0.62506,-1.125108,0.000000812309,279.448697,-60.219835)">
<stop offset="0" style="stop-color:rgb(0%,0%,0%);stop-opacity:0.313725;"/>
<stop offset="0.222222" style="stop-color:rgb(0%,0%,0%);stop-opacity:0.27451;"/>
<stop offset="1" style="stop-color:rgb(0%,0%,0%);stop-opacity:0;"/>
</radialGradient>
<linearGradient id="linear0" gradientUnits="userSpaceOnUse" x1="880" y1="1695.118164" x2="880" y2="175.118134" gradientTransform="matrix(0.132304,0,0,0.132304,0.0000010001,0)">
<stop offset="0" style="stop-color:rgb(36.078431%,41.960784%,75.294118%);stop-opacity:1;"/>
<stop offset="1" style="stop-color:rgb(47.45098%,52.54902%,79.607843%);stop-opacity:1;"/>
</linearGradient>
<filter id="alpha" filterUnits="objectBoundingBox" x="0%" y="0%" width="100%" height="100%">
  <feColorMatrix type="matrix" in="SourceGraphic" values="0 0 0 0 1 0 0 0 0 1 0 0 0 0 1 0 0 0 1 0"/>
</filter>
<mask id="mask0">
  <g filter="url(#alpha)">
<rect x="0" y="0" width="256" height="256" style="fill:rgb(0%,0%,0%);fill-opacity:0.988235;stroke:none;"/>
  </g>
</mask>
<linearGradient id="linear1" gradientUnits="userSpaceOnUse" x1="211.666672" y1="254.666672" x2="211.666672" y2="-168.666656" >
<stop offset="0" style="stop-color:rgb(74.117647%,74.117647%,74.117647%);stop-opacity:1;"/>
<stop offset="1" style="stop-color:rgb(93.333333%,93.333333%,93.333333%);stop-opacity:1;"/>
</linearGradient>
<clipPath id="clip1">
  <rect x="0" y="0" width="256" height="256"/>
</clipPath>
<g id="surface5" clip-path="url(#clip1)">
<path style="fill-rule:nonzero;fill:url(#linear1);stroke-width:3;stroke-linecap:round;stroke-linejoin:round;stroke:rgb(12.941177%,12.941177%,12.941177%);stroke-opacity:1;stroke-miterlimit:4;" d="M 285.964879 -89.293254 C 285.894573 -89.293254 285.816456 -89.293254 285.738338 -89.285443 C 283.808835 -89.23076 281.957449 -88.543326 280.457593 -87.324692 L 225.298798 -51.343753 C 223.197436 -49.632979 221.97099 -47.047289 221.97099 -44.320987 L 221.97099 45.631361 C 221.97099 48.365475 223.197436 50.951165 225.298798 52.66194 L 280.457593 88.642879 C 282.160555 90.017747 284.105682 90.634876 285.996126 90.627064 L 285.996126 -89.293254 C 285.988314 -89.293254 285.980503 -89.293254 285.964879 -89.293254 Z M 296.331077 -89.293254 L 296.331077 90.627064 C 307.619061 90.627064 327.289058 82.596581 327.289058 72.636595 L 327.289058 -71.302785 C 327.289058 -81.270583 307.619061 -89.293254 296.331077 -89.293254 Z M 211.667287 -41.66499 C 200.082456 -41.66499 180.178106 -33.642319 180.178106 -23.674521 L 180.178106 30.296888 C 180.178106 40.264686 200.082456 48.295169 211.667287 48.295169 Z M 211.667287 -41.66499 " transform="matrix(0.500048,0,0,0.500048,0,107.510266)"/>
</g>
</defs>
<g id="surface1">
<path style=" stroke:none;fill-rule:nonzero;fill:url(#radial0);" d="M 68.796875 224.269531 L 89.96875 224.269531 L 89.96875 213.6875 L 68.796875 213.6875 Z M 68.796875 224.269531 "/>
<path style=" stroke:none;fill-rule:nonzero;fill:url(#radial1);" d="M 68.796875 224.269531 L 47.628906 224.269531 L 47.628906 234.855469 L 68.796875 234.855469 Z M 68.796875 224.269531 "/>
<path style=" stroke:none;fill-rule:nonzero;fill:url(#radial2);" d="M 68.796875 224.269531 L 47.628906 224.269531 L 47.628906 213.6875 L 68.796875 213.6875 Z M 68.796875 224.269531 "/>
<path style=" stroke:none;fill-rule:nonzero;fill:url(#radial3);" d="M 68.796875 224.269531 L 89.96875 224.269531 L 89.96875 234.855469 L 68.796875 234.855469 Z M 68.796875 224.269531 "/>
<path style=" stroke:none;fill-rule:nonzero;fill:url(#linear0);" d="M 127.011719 23.167969 C 68.375 23.167969 21.167969 60.933594 21.167969 107.84375 C 21.167969 134.710938 36.65625 158.578125 60.90625 174.070312 L 61.039062 214.066406 C 61.0625 219.71875 64.5 224.269531 68.796875 224.269531 L 71.445312 224.269531 C 78.074219 224.269531 82.996094 218.4375 102.972656 190.34375 C 110.691406 191.765625 118.738281 192.519531 127.011719 192.519531 C 185.648438 192.519531 232.855469 154.753906 232.855469 107.84375 C 232.855469 60.933594 185.648438 23.167969 127.011719 23.167969 Z M 127.011719 23.167969 "/>
<path style=" stroke:none;fill-rule:nonzero;fill:rgb(100%,100%,100%);fill-opacity:0.392157;" d="M 127.011719 21.847656 C 68.375 21.847656 21.167969 59.609375 21.167969 106.519531 C 21.167969 107.175781 21.179688 107.824219 21.199219 108.472656 C 22.527344 62.503906 69.21875 25.816406 127.011719 25.816406 C 184.820312 25.816406 231.515625 62.519531 232.824219 108.503906 C 232.84375 107.84375 232.855469 107.183594 232.855469 106.519531 C 232.855469 59.609375 185.648438 21.847656 127.011719 21.847656 Z M 127.011719 21.847656 "/>
<path style=" stroke:none;fill-rule:nonzero;fill:rgb(0%,0%,0%);fill-opacity:0.235294;" d="M 21.1875 106.945312 C 21.175781 107.464844 21.167969 107.984375 21.167969 108.503906 C 21.167969 135.375 36.65625 159.242188 60.90625 174.730469 L 61.039062 214.726562 C 61.0625 220.382812 64.5 224.933594 68.796875 224.933594 L 71.445312 224.933594 C 78.074219 224.933594 82.996094 219.101562 102.972656 191.003906 C 110.691406 192.425781 118.738281 193.179688 127.011719 193.179688 C 185.648438 193.179688 232.855469 155.414062 232.855469 108.503906 C 232.855469 107.984375 232.847656 107.464844 232.835938 106.945312 C 231.804688 153.132812 185 190.0625 127.011719 190.0625 C 118.738281 190.0625 110.691406 189.3125 102.972656 187.886719 C 82.996094 215.984375 78.074219 221.816406 71.445312 221.816406 L 68.796875 221.816406 C 64.5 221.816406 61.0625 217.265625 61.039062 211.609375 L 60.90625 171.617188 C 37.125 156.425781 21.773438 133.179688 21.1875 106.945312 Z M 21.1875 106.945312 "/>
<path style=" stroke:none;fill-rule:nonzero;fill:rgb(12.941177%,12.941177%,12.941177%);fill-opacity:1;" d="M 127.011719 22.457031 C 68.070312 22.457031 20.457031 60.457031 20.457031 107.84375 C 20.457031 134.863281 35.972656 158.851562 60.199219 174.453125 L 60.328125 214.066406 C 60.339844 217.039062 61.242188 219.734375 62.75 221.71875 C 64.253906 223.703125 66.398438 224.980469 68.796875 224.980469 L 71.445312 224.980469 C 73.207031 224.980469 74.910156 224.578125 76.714844 223.535156 C 78.515625 222.496094 80.421875 220.835938 82.726562 218.324219 C 87.292969 213.339844 93.464844 204.929688 103.292969 191.117188 C 110.917969 192.496094 118.855469 193.230469 127.011719 193.230469 C 185.953125 193.230469 233.566406 155.230469 233.566406 107.84375 C 233.566406 60.457031 185.953125 22.457031 127.011719 22.457031 Z M 127.011719 23.878906 C 185.34375 23.878906 232.144531 61.410156 232.144531 107.84375 C 232.144531 154.277344 185.34375 191.808594 127.011719 191.808594 C 118.78125 191.808594 110.777344 191.058594 103.101562 189.644531 L 102.65625 189.5625 L 102.394531 189.929688 C 92.40625 203.976562 86.179688 212.453125 81.679688 217.363281 C 79.429688 219.816406 77.613281 221.375 76.003906 222.304688 C 74.394531 223.234375 72.996094 223.5625 71.445312 223.5625 L 68.796875 223.5625 C 66.898438 223.5625 65.175781 222.566406 63.878906 220.859375 C 62.585938 219.152344 61.757812 216.746094 61.75 214.0625 L 61.617188 173.679688 L 61.289062 173.472656 C 37.203125 158.085938 21.878906 134.4375 21.878906 107.84375 C 21.878906 61.410156 68.679688 23.878906 127.011719 23.878906 Z M 127.011719 23.878906 "/>
<use xlink:href="#surface5" mask="url(#mask0)"/>
</g>
</svg>

<svg xmlns="http://www.w3.org/2000/svg" xmlns:xlink="http://www.w3.org/1999/xlink" width="256pt" height="256pt" viewBox="0 0 256 256"><defs><radialGradient id="d" gradientUnits="userSpaceOnUse" cx="450.909" cy="189.579" fx="450.909" fy="189.579" r="21.167" gradientTransform="matrix(0 -.62506 -1.1251 0 279.449 508.763)"><stop offset="0" stop-opacity=".314"/><stop offset=".222" stop-opacity=".275"/><stop offset="1" stop-opacity="0"/></radialGradient><radialGradient id="e" gradientUnits="userSpaceOnUse" cx="450.909" cy="189.579" fx="450.909" fy="189.579" r="21.167" gradientTransform="matrix(0 .62506 1.1251 0 -141.852 -60.22)"><stop offset="0" stop-opacity=".314"/><stop offset=".222" stop-opacity=".275"/><stop offset="1" stop-opacity="0"/></radialGradient><radialGradient id="f" gradientUnits="userSpaceOnUse" cx="450.909" cy="189.579" fx="450.909" fy="189.579" r="21.167" gradientTransform="matrix(0 -.62506 1.1251 0 -141.852 508.763)"><stop offset="0" stop-opacity=".314"/><stop offset=".222" stop-opacity=".275"/><stop offset="1" stop-opacity="0"/></radialGradient><radialGradient id="g" gradientUnits="userSpaceOnUse" cx="450.909" cy="189.579" fx="450.909" fy="189.579" r="21.167" gradientTransform="matrix(0 .62506 -1.1251 0 279.449 -60.22)"><stop offset="0" stop-opacity=".314"/><stop offset=".222" stop-opacity=".275"/><stop offset="1" stop-opacity="0"/></radialGradient><linearGradient id="h" gradientUnits="userSpaceOnUse" x1="880" y1="1695.118" x2="880" y2="175.118" gradientTransform="matrix(.1323 0 0 .1323 0 0)"><stop offset="0" stop-color="#5c6bc0"/><stop offset="1" stop-color="#7986cb"/></linearGradient><filter id="a" filterUnits="objectBoundingBox" x="0%" y="0%" width="100%" height="100%"><feColorMatrix in="SourceGraphic" values="0 0 0 0 1 0 0 0 0 1 0 0 0 0 1 0 0 0 1 0"/></filter><mask id="j"><path fill-opacity=".988" d="M0 0h256v256H0z" filter="url(#a)"/></mask><linearGradient id="c" gradientUnits="userSpaceOnUse" x1="211.667" y1="254.667" x2="211.667" y2="-168.667"><stop offset="0" stop-color="#bdbdbd"/><stop offset="1" stop-color="#eee"/></linearGradient><clipPath id="b"><path d="M0 0h256v256H0z"/></clipPath><g id="i" clip-path="url(#b)"><path d="M285.965-89.293c-.07 0-.149 0-.227.008a8.758 8.758 0 0 0-5.28 1.96l-55.16 35.981a9.063 9.063 0 0 0-3.327 7.023v89.952a9.067 9.067 0 0 0 3.328 7.03l55.159 35.982c1.703 1.375 3.648 1.992 5.538 1.984v-179.92h-.031zm10.366 0v179.92c11.288 0 30.958-8.03 30.958-17.99v-143.94c0-9.968-19.67-17.99-30.958-17.99zm-84.664 47.628c-11.585 0-31.489 8.023-31.489 17.99v53.972c0 9.968 19.904 17.998 31.49 17.998zm0 0" transform="matrix(.50005 0 0 .50005 0 107.51)" fill="url(#c)" stroke-width="3" stroke-linecap="round" stroke-linejoin="round" stroke="#212121"/></g></defs><path d="M68.797 224.27h21.172v-10.583H68.797zm0 0" fill="url(#d)"/><path d="M68.797 224.27H47.629v10.585h21.168zm0 0" fill="url(#e)"/><path d="M68.797 224.27H47.629v-10.583h21.168zm0 0" fill="url(#f)"/><path d="M68.797 224.27h21.172v10.585H68.797zm0 0" fill="url(#g)"/><path d="M127.012 23.168c-58.637 0-105.844 37.766-105.844 84.676 0 26.867 15.488 50.734 39.738 66.226l.133 39.996c.023 5.653 3.461 10.204 7.758 10.204h2.648c6.63 0 11.551-5.833 31.528-33.926a132.716 132.716 0 0 0 24.039 2.176c58.636 0 105.843-37.766 105.843-84.676 0-46.91-47.207-84.676-105.843-84.676zm0 0" fill="url(#h)"/><path d="M127.012 21.848c-58.637 0-105.844 37.761-105.844 84.672 0 .656.012 1.304.031 1.953 1.328-45.97 48.02-82.657 105.813-82.657 57.808 0 104.504 36.704 105.812 82.688.02-.66.031-1.32.031-1.984 0-46.91-47.207-84.672-105.843-84.672zm0 0" fill="#fff" fill-opacity=".392"/><path d="M21.188 106.945c-.012.52-.02 1.04-.02 1.559 0 26.871 15.488 50.738 39.738 66.226l.133 39.997c.023 5.656 3.461 10.207 7.758 10.207h2.648c6.63 0 11.551-5.832 31.528-33.93a132.716 132.716 0 0 0 24.039 2.176c58.636 0 105.843-37.766 105.843-84.676 0-.52-.007-1.04-.02-1.559-1.03 46.188-47.835 83.118-105.823 83.118-8.274 0-16.32-.75-24.04-2.176-19.976 28.097-24.898 33.93-31.527 33.93h-2.648c-4.297 0-7.734-4.551-7.758-10.208l-.133-39.992c-23.781-15.191-39.133-38.437-39.718-64.672zm0 0" fill-opacity=".235"/><path d="M127.012 22.457c-58.942 0-106.555 38-106.555 85.387 0 27.02 15.516 51.008 39.742 66.61l.13 39.612c.01 2.973.913 5.668 2.421 7.653 1.504 1.984 3.648 3.261 6.047 3.261h2.648c1.762 0 3.465-.402 5.27-1.445 1.8-1.039 3.707-2.7 6.012-5.21 4.566-4.985 10.738-13.395 20.566-27.208a133.296 133.296 0 0 0 23.719 2.113c58.941 0 106.554-38 106.554-85.386 0-47.387-47.613-85.387-106.554-85.387zm0 1.422c58.332 0 105.133 37.531 105.133 83.965 0 46.433-46.801 83.965-105.133 83.965-8.23 0-16.235-.75-23.91-2.164l-.446-.083-.261.368c-9.989 14.047-16.215 22.523-20.715 27.433-2.25 2.453-4.067 4.012-5.676 4.942-1.61.93-3.008 1.257-4.559 1.257h-2.648c-1.899 0-3.621-.996-4.918-2.703-1.293-1.707-2.121-4.113-2.129-6.797l-.133-40.382-.328-.207c-24.086-15.387-39.41-39.036-39.41-65.63 0-46.433 46.8-83.964 105.133-83.964zm0 0" fill="#212121"/><use xlink:href="#i" mask="url(#j)"/></svg>
